Origami/16x16/apps/bareftp.svg

<svg width="16" height="16" version="1.1" viewBox="0 0 16 16" xmlns="http://www.w3.org/2000/svg">
 <path d="m5.3808594 0.00195313c-0.7444144 0.0330147-1.4895889 0.34834941-2.0019532 1.0820313l0.1933594-0.23632815-3.0488281 3.1992188-0.0859375 0.1230469c-0.55286994 0.7902848-0.50399667 2.0348697 0.00390625 2.7558593 0.38668863 0.5489209 0.95879565 0.81818 1.5585938 0.9472657v2.2441411c0 1.777306 1.3331289 2.882812 2.9335938 2.882812h1.1328124c0.1292985 0 0.208738-0.110798 0.3339844-0.125l2.171875 2.277344-0.1933594-0.236328c0.513223 0.734892 1.2602136 1.049904 2.0058598 1.082031 0.827128 0.03588 1.667759-0.267677 2.236328-1.082031l-0.19336 0.236328 3.048828-3.199219 0.08594-0.123047c0.552868-0.790285 0.503995-2.0348709-0.003908-2.7558592-0.386689-0.5489199-0.958797-0.8181799-1.558594-0.9472657v-2.2441406c0-1.7773098-1.333125-2.8828125-2.933594-2.8828125h-1.1328122c-0.1292988 0-0.2087377 0.1107985-0.3339844 0.125l-2.171875-2.2773438 0.1933594 0.23632815c-0.5686516-0.81447809-1.4096336-1.1177564-2.2363282-1.0820313h-0.00391z" style="fill:#4f4f4f"/>
 <path d="m5.4702806 2.0006638c-0.1873497 0.00807-0.3570454 0.094068-0.4509429 0.228525l-2.9438873 3.0873044c-0.2141149 0.3060607 0.052999 0.6839515 0.4802246 0.6835068h1.4438877v4.117955c0 0.488694 0.4717913 0.882045 0.9330823 0.882045h1.1338354c0.4612907 0 0.9330823-0.393357 0.9330823-0.882045v-4.117955h1.4438877c0.4272255 4.5e-4 0.6943389-0.3774461 0.4802246-0.6835068l-2.943887-3.0873044c-0.1043621-0.1494777-0.3012593-0.2377903-0.5095074-0.228525z" style="fill:#ffd42b"/>
 <path d="m9.9330824 4.9999979c-0.461291 0-0.9330824 0.3933575-0.9330824 0.8820445v4.1179576h-1.4438877c-0.4272256-4.5e-4 -0.69434 0.377446-0.4802247 0.683507l2.9438904 3.0873c0.0939 0.134457 0.263594 0.220453 0.450943 0.228525 0.208249 0.0093 0.405146-0.07905 0.509507-0.228525l2.943884-3.0873c0.214115-0.306061-0.053-0.683951-0.480225-0.683507h-1.443887v-4.1179576c0-0.4886938-0.471792-0.8820445-0.933082-0.8820445z" style="fill:#71d716"/>
</svg>

<svg xmlns="http://www.w3.org/2000/svg" width="16" height="16" version="1.1" viewBox="0 0 16 16">
 <path style="fill:#4f4f4f" d="M 5.3808594,0.00195313 C 4.636445,0.03496783 3.8912705,0.35030254 3.3789062,1.0839844 L 3.5722656,0.84765625 0.5234375,4.046875 0.4375,4.1699219 C -0.11536994,4.9602067 -0.06649667,6.2047916 0.44140625,6.9257812 0.82809488,7.4747021 1.4002019,7.7439612 2,7.8730469 L 2,10.117188 C 2,11.894494 3.3331289,13 4.9335938,13 l 1.1328124,0 c 0.1292985,0 0.208738,-0.110798 0.3339844,-0.125 l 2.171875,2.277344 -0.1933594,-0.236328 c 0.513223,0.734892 1.2602136,1.049904 2.0058598,1.082031 0.827128,0.03588 1.667759,-0.267677 2.236328,-1.082031 l -0.19336,0.236328 3.048828,-3.199219 0.08594,-0.123047 C 16.11537,11.039793 16.066497,9.7952071 15.558594,9.0742188 15.171905,8.5252989 14.599797,8.2560389 14,8.1269531 L 14,5.8828125 C 14,4.1055027 12.666875,3 11.066406,3 L 9.9335938,3 C 9.804295,3 9.7248561,3.1107985 9.5996094,3.125 L 7.4277344,0.84765625 7.6210938,1.0839844 C 7.0524422,0.26950631 6.2114602,-0.033772 5.3847656,0.00195313 l -0.00391,0 z"/>
 <path style="fill:#ffd42b" d="m 5.4702806,2.0006638 c -0.1873497,0.00807 -0.3570454,0.094068 -0.4509429,0.228525 L 2.0754504,5.3164932 C 1.8613355,5.6225539 2.1284494,6.0004447 2.555675,6 l 1.4438877,0 0,4.117955 C 3.9995627,10.606649 4.471354,11 4.932645,11 l 1.1338354,0 c 0.4612907,0 0.9330823,-0.393357 0.9330823,-0.882045 L 6.9995627,6 8.4434504,6 C 8.8706759,6.00045 9.1377893,5.6225539 8.923675,5.3164932 L 5.979788,2.2291888 C 5.8754259,2.0797111 5.6785287,1.9913985 5.4702806,2.0006638 Z"/>
 <path style="fill:#71d716" d="M 9.9330824,4.9999979 C 9.4717914,4.9999979 9,5.3933554 9,5.8820424 L 9,10 7.5561123,10 c -0.4272256,-4.5e-4 -0.69434,0.377446 -0.4802247,0.683507 l 2.9438904,3.0873 c 0.0939,0.134457 0.263594,0.220453 0.450943,0.228525 0.208249,0.0093 0.405146,-0.07905 0.509507,-0.228525 l 2.943884,-3.0873 C 14.138227,10.377446 13.871112,9.999556 13.443887,10 L 12,10 12,5.8820424 C 12,5.3933486 11.528208,4.9999979 11.066918,4.9999979 Z"/>
</svg>
